casedrop/img/balance/icons/coins.svg

<svg width="20" height="20" viewBox="0 0 20 20" fill="none" xmlns="http://www.w3.org/2000/svg">
<path d="M18.2672 13.9572C17.9922 16.1738 16.1755 17.9905 13.9589 18.2655C12.6172 18.4322 11.3672 18.0655 10.3922 17.3488C9.83387 16.9405 9.9672 16.0738 10.6339 15.8738C13.1422 15.1155 15.1172 13.1322 15.8839 10.6238C16.0839 9.96549 16.9505 9.83216 17.3589 10.3822C18.0672 11.3655 18.4339 12.6155 18.2672 13.9572Z" fill="#8B95AD"/>
<path d="M8.32435 1.66666C4.64935 1.66666 1.66602 4.65 1.66602 8.325C1.66602 12 4.64935 14.9833 8.32435 14.9833C11.9993 14.9833 14.9827 12 14.9827 8.325C14.9743 4.65 11.9993 1.66666 8.32435 1.66666ZM7.54102 7.39166L9.54935 8.09166C10.2743 8.35 10.6243 8.85833 10.6243 9.64166C10.6243 10.5417 9.90768 11.2833 9.03268 11.2833H8.95768V11.325C8.95768 11.6667 8.67435 11.95 8.33268 11.95C7.99102 11.95 7.70768 11.6667 7.70768 11.325V11.275C6.78268 11.2333 6.04102 10.4583 6.04102 9.49166C6.04102 9.15 6.32435 8.86666 6.66602 8.86666C7.00768 8.86666 7.29102 9.15 7.29102 9.49166C7.29102 9.79166 7.50768 10.0333 7.77435 10.0333H9.02435C9.21602 10.0333 9.36602 9.85833 9.36602 9.64166C9.36602 9.35 9.31602 9.33333 9.12435 9.26666L7.11602 8.56666C6.39935 8.31666 6.04102 7.80833 6.04102 7.01666C6.04102 6.11666 6.75768 5.375 7.63268 5.375H7.70768V5.34166C7.70768 5 7.99102 4.71666 8.33268 4.71666C8.67435 4.71666 8.95768 5 8.95768 5.34166V5.39166C9.88268 5.43333 10.6243 6.20833 10.6243 7.175C10.6243 7.51666 10.341 7.8 9.99935 7.8C9.65768 7.8 9.37435 7.51666 9.37435 7.175C9.37435 6.875 9.15768 6.63333 8.89102 6.63333H7.64102C7.44935 6.63333 7.29935 6.80833 7.29935 7.025C7.29102 7.30833 7.34102 7.325 7.54102 7.39166Z" fill="#8B95AD"/>
</svg>

<svg width="20" height="20" fill="none" xmlns="http://www.w3.org/2000/svg"><path d="M18.267 13.957c-.275 2.217-2.091 4.034-4.308 4.308a4.948 4.948 0 01-3.567-.916c-.558-.409-.425-1.275.242-1.475a7.905 7.905 0 005.25-5.25c.2-.659 1.067-.792 1.475-.242a5.016 5.016 0 01.908 3.575z" fill="#8B95AD"/><path d="M8.324 1.667a6.661 6.661 0 00-6.658 6.658 6.661 6.661 0 006.658 6.658 6.661 6.661 0 006.659-6.658c-.009-3.675-2.984-6.658-6.659-6.658zm-.783 5.725l2.008.7c.725.258 1.075.766 1.075 1.55 0 .9-.716 1.641-1.591 1.641h-.075v.042a.63.63 0 01-.625.625.63.63 0 01-.625-.625v-.05c-.925-.042-1.667-.817-1.667-1.783a.63.63 0 01.625-.625.63.63 0 01.625.625c0 .3.217.541.483.541h1.25c.192 0 .342-.175.342-.391 0-.292-.05-.309-.242-.375l-2.008-.7c-.717-.25-1.075-.759-1.075-1.55 0-.9.717-1.642 1.592-1.642h.075v-.033a.63.63 0 01.625-.625.63.63 0 01.625.625v.05c.925.041 1.666.816 1.666 1.783A.63.63 0 0110 7.8a.63.63 0 01-.625-.625c0-.3-.216-.542-.483-.542h-1.25c-.192 0-.342.175-.342.392-.008.283.042.3.242.367z" fill="#8B95AD"/></svg>
